X:1
T:Title
%%score { ( 1 3 ) | 2 }
L:1/8
M:4/4
K:G
V:1 treble nm="Grand Piano"
V:3 treble 
V:2 bass 
V:1
 z4 z2[Q:1/4=100] D2 | B2 A2 G2 D2 | E2 [EG]4 [DG]2 | F2 G2 A2 D2 | [DB]6 D2 | B2 A2 G2 D2 | %6
 E2 [CEG]4 G-[EGA] | [DGB]3 [DGB] [DGB]2 [CFA]2 | [B,G]6 [DGB]2 | [EGc]3 [EGc] [EGc]2 [EGc]2 | %10
 [EGc]2 [DGB]4 [DGB]2 | [DGB]3 [DFA] [CFA]2 [B,G]2 | [DFA]6 [DGB]2 | [EGc]3 [EGc] [EGc]2 [EGc]2 | %14
 [EGc]2 [DGB]4 [B,EG]2 | [DF]3 [FA] [EG]2 [^CE]2 |[M:3/4] D6 |[M:1/4] D2 |[M:4/4] B2 A2 G2 D2 | %19
 E2 [DF]4 z2 | [DF]2 [FA]4 z2 | G2 B4 D2 | B2 A2 F2 D2 | E2 [CEG]4 G-[EGA] | %24
 [DGB]3 [DGB] [DGB]2 [CFA]2 |[M:3/4] [B,G]6 |] %26
V:2
 z4 z2 [G,B,]2 | [G,D]2 [G,CD]2 [G,B,D]2 [G,B,]2 | [C,G,C]2 [C,C]4 [B,,G,]2 | %3
 [D,A,D]2 [D,B,D]2 [D,CD]2 [D,F,]2 | [G,,G,]6 [G,B,]2 | [G,D]2 [G,CD]2 [G,B,D]2 [G,B,]2 | %6
 [C,G,C]2 C,4 B,,C, | D,3 D, D,2 D,2 | G,6 G,2 | C,3 C, C,2 C,2 | G,2 G,4 G,2 | D,3 D, D,2 E,2 | %12
 D,6 G,2 | C,3 C, C,2 C,2 | G,2 G,4 G,,2 | [A,,A,]3 [A,,A,] [A,,A,]2 [A,,G,]2 |[M:3/4] [D,F,]6 | %17
[M:1/4] [G,B,]2 |[M:4/4] [G,D]2 [G,CD]2 [G,B,D]2 [G,B,]2 | [C,G,C]2 [C,C]4 z2 | [D,A,]2 [D,D]4 z2 | %21
 [G,B,]2 [G,DG]4 [G,B,]2 | [G,D]2 [G,CD]2[K:bass] [G,B,D]2 [G,B,]2 | [C,G,C]2 C,4 B,,C, | %24
 D,3 D, D,2 D,2 |[M:3/4] G,6 |] %26
V:3
 x8 | x8 | x8 | x8 | x8 | x8 | z4 z2 .D2 | x8 | x8 | x8 | x8 | x8 | x8 | x8 | x8 | x8 |[M:3/4] x6 | %17
[M:1/4] x2 |[M:4/4] x8 | x8 | x8 | x8 | x8 | z4 z2 .D2 | x8 |[M:3/4] x6 |] %26

